X: 3
T: The Maid On The Green
R: jig
M: 6/8
L: 1/8
K: Gmaj
d|gag e2d|Bee dBA|BAG AGA|BAA A2d|gfg e2d|Bee dBA|BAG dBA|AGG G2:|e|ggg aff|ggg a2e|ggg egg|ffe d2e|bbb aaa|ggg e2d|Bde dBA|AGG G2:|


Tune 1831	Setting 15264

